assets/images/people.svg

<svg width="22" height="22" viewBox="0 0 22 22" fill="none" xmlns="http://www.w3.org/2000/svg">
<g opacity="0.3">
<path d="M11.0039 14.8818C12.0746 14.8819 13.1828 15.1485 14.0488 15.7256C14.8382 16.2519 15.324 17.0151 15.3242 17.8652C15.3242 18.7154 14.8382 19.4775 14.0488 20.0039L14.0498 20.0049C13.1799 20.5865 12.0717 20.8564 11 20.8564C9.92836 20.8564 8.82002 20.5866 7.9502 20.0049V20.0039C7.1616 19.4775 6.67578 18.715 6.67578 17.8652C6.67603 17.0152 7.16183 16.2518 7.95117 15.7256L7.95312 15.7246C8.82289 15.1485 9.9328 14.8819 11.0039 14.8818ZM10.918 7.99316C12.6101 7.99329 13.9707 9.36639 13.9707 11.0459V11.0508C13.9589 12.6952 12.6639 14.0498 11.0205 14.0977C10.985 14.0987 10.9493 14.0943 10.9141 14.0898C10.9184 14.0898 10.9268 14.091 10.9395 14.0889C10.9306 14.0903 10.921 14.0887 10.9121 14.0898C10.9041 14.0888 10.8957 14.0902 10.8877 14.0889C10.8982 14.0906 10.9056 14.0897 10.9102 14.0898C10.8739 14.0943 10.8373 14.099 10.8008 14.0977C9.16669 14.0382 7.86536 12.6993 7.86523 11.0459C7.86528 9.35545 9.22752 7.99323 10.918 7.99316ZM2.4248 8.86816C3.58001 8.1017 5.16992 7.86915 6.56348 8.11328C6.93714 8.17895 7.18731 8.53545 7.12207 8.90918C7.05657 9.28306 6.70004 9.53307 6.32617 9.46777C5.2082 9.27192 3.99199 9.47961 3.18555 10.0146C2.68392 10.3495 2.5236 10.7228 2.52344 11.0088C2.52344 11.2951 2.68366 11.6696 3.18652 12.0049H3.1875C3.98396 12.5384 5.18181 12.7467 6.30273 12.5586C6.67708 12.4958 7.03177 12.7487 7.09473 13.123C7.15735 13.4972 6.90525 13.8509 6.53125 13.9141C5.1409 14.1475 3.57054 13.9152 2.42383 13.1475V13.1484C1.63433 12.622 1.14844 11.8591 1.14844 11.0088C1.1486 10.1586 1.63436 9.39545 2.42383 8.86914L2.4248 8.86816ZM15.4102 8.11328C16.7166 7.88459 18.1948 8.07518 19.3262 8.73145L19.5479 8.86816L19.5488 8.86914C20.3383 9.39545 20.8241 10.1586 20.8242 11.0088C20.8242 11.859 20.3383 12.622 19.5488 13.1484L19.5479 13.1475C18.4013 13.9147 16.8323 14.1473 15.4424 13.9141C15.068 13.8512 14.8153 13.4974 14.8779 13.123C14.9409 12.7487 15.2956 12.4957 15.6699 12.5586C16.7908 12.7467 17.9887 12.5384 18.7852 12.0049H18.7861C19.2888 11.6697 19.4492 11.295 19.4492 11.0088C19.4491 10.7228 19.2888 10.3495 18.7871 10.0146L18.6318 9.91797C17.8297 9.4549 16.6947 9.2842 15.6465 9.46777C15.2726 9.53302 14.9171 9.28303 14.8516 8.90918C14.7862 8.53526 15.0362 8.17879 15.4102 8.11328ZM5.55566 1.14551C7.24581 1.14586 8.60827 2.50804 8.6084 4.19824C8.60828 5.85168 7.30601 7.19056 5.67188 7.25C5.63501 7.25133 5.59809 7.24679 5.56152 7.24219C5.56602 7.24219 5.57423 7.24316 5.58594 7.24121C5.57744 7.24263 5.56812 7.24119 5.55957 7.24219C5.55133 7.24113 5.54239 7.24249 5.53418 7.24121C5.54524 7.243 5.55312 7.24209 5.55762 7.24219C5.52137 7.24671 5.48477 7.25127 5.44824 7.25C3.81304 7.19075 2.51481 5.85205 2.50293 4.20312V4.19824L2.50684 4.04102C2.58858 2.43379 3.91652 1.14551 5.55566 1.14551ZM16.418 1.14551C18.1101 1.14567 19.4706 2.51877 19.4707 4.19824V4.20312L18.7832 4.19824L19.4697 4.20312C19.4578 5.85193 18.1604 7.19059 16.5254 7.25C16.4885 7.25134 16.4516 7.24678 16.415 7.24219C16.4195 7.24212 16.4277 7.24316 16.4395 7.24121C16.4309 7.24263 16.4216 7.24111 16.4131 7.24219C16.4047 7.24112 16.396 7.24258 16.3877 7.24121C16.3983 7.24294 16.4056 7.24206 16.4102 7.24219C16.3739 7.24667 16.3373 7.25132 16.3008 7.25C14.6666 7.19058 13.3654 5.8517 13.3652 4.19824C13.3653 2.50777 14.7275 1.14551 16.418 1.14551ZM5.55957 7.24316L5.55762 7.24219H5.56152L5.55957 7.24316ZM16.4131 7.24316C16.4123 7.24316 16.4113 7.24225 16.4102 7.24219H16.415L16.4131 7.24316ZM5.55566 2.52051C4.62634 2.52051 3.87805 3.27464 3.87793 4.19824C3.887 5.10114 4.58567 5.82167 5.46191 5.87207C5.52645 5.86704 5.59269 5.86706 5.65723 5.87207C6.53602 5.8218 7.23328 5.09898 7.2334 4.19824C7.23328 3.26743 6.48641 2.52086 5.55566 2.52051ZM16.418 2.52051C15.4869 2.52051 14.7403 3.26716 14.7402 4.19824C14.7404 5.09896 15.4367 5.82176 16.3154 5.87207C16.3798 5.86705 16.4454 5.8671 16.5098 5.87207C17.3867 5.82237 18.0866 5.10163 18.0957 4.19824L18.0869 4.02734C18.0015 3.18336 17.2893 2.52066 16.418 2.52051Z" fill="#AAAAAA"/>
</g>
</svg>

<svg xmlns="http://www.w3.org/2000/svg" width="22" height="22" fill="none"><path fill="#AAA" d="M11.004 14.882c1.07 0 2.179.267 3.045.844.79.526 1.275 1.29 1.275 2.14s-.486 1.611-1.275 2.138c-.87.582-1.977.852-3.049.852s-2.18-.27-3.05-.851v-.001c-.788-.527-1.274-1.289-1.274-2.139s.486-1.613 1.275-2.14h.002c.87-.576 1.98-.843 3.05-.843m-.086-6.889a3.053 3.053 0 0 1 3.053 3.053v.005c-.012 1.644-1.307 2.999-2.95 3.047a1 1 0 0 1-.107-.008q.006.001.026-.001h-.052q.015.001.022 0-.054.009-.11.009a3.047 3.047 0 0 1-2.935-3.052 3.047 3.047 0 0 1 3.053-3.053m-8.493.875c1.155-.766 2.745-.999 4.138-.755a.688.688 0 0 1-.237 1.355c-1.118-.196-2.334.012-3.14.547-.502.335-.662.708-.663.994 0 .286.16.66.664.996.797.533 1.995.742 3.116.554a.688.688 0 0 1 .228 1.355c-1.39.234-2.96.001-4.107-.766-.79-.526-1.276-1.289-1.276-2.14 0-.85.486-1.613 1.276-2.139m12.985-.755c1.307-.228 2.785-.038 3.916.618l.222.137v.001c.79.526 1.276 1.29 1.276 2.14s-.486 1.613-1.275 2.14l-.001-.001c-1.147.767-2.716 1-4.106.766a.687.687 0 1 1 .228-1.355c1.12.188 2.319-.02 3.115-.554h.001c.503-.335.663-.71.663-.996s-.16-.66-.662-.994l-.155-.097c-.802-.463-1.937-.634-2.986-.45a.687.687 0 1 1-.236-1.355M5.556 1.146a3.05 3.05 0 0 1 3.052 3.052A3.047 3.047 0 0 1 5.672 7.25a1 1 0 0 1-.11-.008h.024-.052.024a1 1 0 0 1-.11.008 3.06 3.06 0 0 1-2.945-3.047v-.005l.004-.157a3.053 3.053 0 0 1 3.049-2.895m10.862 0a3.053 3.053 0 0 1 3.053 3.052v.005l-.688-.005.687.005a3.06 3.06 0 0 1-2.945 3.047 1 1 0 0 1-.11-.008h.024-.051.022q-.054.01-.11.008a3.046 3.046 0 0 1-2.935-3.052 3.047 3.047 0 0 1 3.053-3.052M5.56 7.243h-.002.004zm10.853 0h-.003.005zM5.556 2.521c-.93 0-1.678.754-1.678 1.677.009.903.708 1.624 1.584 1.674q.097-.007.195 0a1.67 1.67 0 0 0 1.576-1.674c0-.93-.747-1.677-1.677-1.677m10.862 0c-.931 0-1.678.746-1.678 1.677 0 .901.697 1.624 1.575 1.674q.098-.007.195 0a1.684 1.684 0 0 0 1.586-1.674l-.01-.17a1.68 1.68 0 0 0-1.668-1.507" opacity=".3"/></svg>
